X:2009
T:Miss Jessie Dalrymple's Reel
P:Miss Jessie Dalrymple's Reel
C:Traditional?
R:Reel (8x32)
B:RSCDS 20-9
Z:Anselm Lingnau <anselm@strathspey.org>
M:C|
L:1/8
K:Bb
F|"Bb"B2dB fBdB|"Cm"Gcec gcec|"F7"A/c/f a>f "Gm"bg"F"af|"C7"=c/d/e c>e "F"fF FF|
"Bb"B2dB fBdB|"Cm"Gcec gcec|"F7"A/c/f a>f "Gm"bg"F"af|"C7"=c/d/e c>e "F"fF F||
F|"Bb"D/E/F BF "Eb"GEEG|"Bb"FDDF "F7"ECCE|\
                    "Bb"D/E/F BF "C7"GEce|"F"[d/F/]c/B FA "Bb"BB,B, E|
  "Bb"D/E/F BF "Eb"GEEG|"Bb"FDDF "F7"ECCE|"Bb"DFBb "Cm"accg|"F7"fBAe "Bb"dBB|]
